Suru++-Ubuntu/actions/symbolic/calendar-go-today-symbolic.svg

<svg width="16" height="16" version="1.1" xmlns="http://www.w3.org/2000/svg">
 <path d="m6 0-1 0.25v0.75h1zm0 1v1h-1v-1h-0.00586c-1.2589994 0.014-2.17964-0.02923437-2.93164 0.3847656-0.376 0.208-0.6748438 0.5590469-0.8398438 0.9980469-0.1639999 0.438-0.2226562 0.9601875-0.2226562 1.6171875v3h1s0.0621562-1.005625 0.1601562-1.265625c0.097-0.26 0.2037188-0.3706563 0.3867188-0.4726562 0.367-0.202 1.1949844-0.2477188 2.4589844-0.2617188h5.9941406c1.26 0.014 2.087125 0.060719 2.453125 0.2617188 0.183 0.102 0.289719 0.2126562 0.386719 0.4726562 0.098 0.26 0.158203 1.265625 0.158203 1.265625v5c0 0.592-0.0602 1.005625-0.158203 1.265625-0.097 0.26-0.203719 0.371656-0.386719 0.472656-0.366 0.202-1.194125 0.246719-2.453125 0.261719h-6c-1.26-0.015-2.086125-0.059719-2.453125-0.261719-0.183-0.101-0.2897188-0.212656-0.3867188-0.472656-0.0979999-0.26-0.1601562-0.673625-0.1601562-1.265625v-1h-1v1c0 0.657 0.058656 1.178188 0.2226562 1.617188 0.1650001 0.439 0.4638438 0.788093 0.8398438 0.996093 0.753 0.415 1.6736406 0.371719 2.9316406 0.386719h6.0117184c1.258-0.015 2.178641 0.02828 2.931641-0.386719 0.389571-0.220977 0.686892-0.574435 0.837891-0.996093 0.165-0.439001 0.224609-0.990188 0.224609-1.617188v-8c0-0.658-0.059609-1.1791875-0.224609-1.6171875-0.151377-0.4219369-0.448538-0.7758979-0.837891-0.9980469-0.753-0.41599997-1.673641-0.3697656-2.931641-0.3847656h-0.005859v1h-1v-1zm4 0h1v-1l-1 0.25z" style="fill:#808080"/>
 <path d="m5.3618498 6.035c-0.267-0.013-0.559 0.188-0.567 0.465v1.5h-3.5c-0.27178 0.01027-0.48973003 0.228224-0.50000003 0.5v0.9999998c-3e-3 0.03126-3e-3 0.06274 0 0.094 0.044 0.229 0.26700003 0.4100002 0.50000003 0.406h3.5v1.5000002c0.011 0.369 0.524 0.606 0.813 0.375l3-2.5000002c0.21183-0.205126 0.21183-0.5448738 0-0.7499998l-3-2.5c-0.0702-0.05558-0.15648-0.08713-0.246-0.09z" overflow="visible" style="fill:#808080"/>
</svg>

<?xml version="1.0" encoding="UTF-8" standalone="no"?>
<svg
   xmlns:dc="http://purl.org/dc/elements/1.1/"
   xmlns:cc="http://creativecommons.org/ns#"
   xmlns:rdf="http://www.w3.org/1999/02/22-rdf-syntax-ns#"
   xmlns:svg="http://www.w3.org/2000/svg"
   xmlns="http://www.w3.org/2000/svg"
   xmlns:sodipodi="http://sodipodi.sourceforge.net/DTD/sodipodi-0.dtd"
   xmlns:inkscape="http://www.inkscape.org/namespaces/inkscape"
   height="16"
   width="16"
   version="1.1"
   id="svg4"
   sodipodi:docname="appointment-symbolic.svg"
   inkscape:version="0.92.3 (2405546, 2018-03-11)">
  <metadata
     id="metadata10">
    <rdf:RDF>
      <cc:Work
         rdf:about="">
        <dc:format>image/svg+xml</dc:format>
        <dc:type
           rdf:resource="http://purl.org/dc/dcmitype/StillImage" />
        <dc:title></dc:title>
      </cc:Work>
    </rdf:RDF>
  </metadata>
  <defs
     id="defs8" />
  <sodipodi:namedview
     pagecolor="#ffffff"
     bordercolor="#666666"
     borderopacity="1"
     objecttolerance="10"
     gridtolerance="10"
     guidetolerance="10"
     inkscape:pageopacity="0"
     inkscape:pageshadow="2"
     inkscape:window-width="1125"
     inkscape:window-height="908"
     id="namedview6"
     showgrid="true"
     inkscape:zoom="37.0625"
     inkscape:cx="8"
     inkscape:cy="8"
     inkscape:window-x="0"
     inkscape:window-y="34"
     inkscape:window-maximized="0"
     inkscape:current-layer="svg4">
    <inkscape:grid
       type="xygrid"
       id="grid5091" />
  </sodipodi:namedview>
  <path
     style="line-height:normal;text-indent:0;text-align:start;text-decoration:none;text-decoration-line:none;text-decoration-style:solid;text-decoration-color:#000000;text-transform:none;isolation:auto;mix-blend-mode:normal;marker:none;fill:#808080;fill-opacity:1"
     d="M 6,0 5,0.25 V 1 H 6 Z M 6,1 V 2 H 5 V 1 h -0.00586 C 3.7351406,1.014 2.8145,0.97076563 2.0625,1.3847656 1.6865,1.5927656 1.3876562,1.9438125 1.2226562,2.3828125 1.0586563,2.8208125 1,3.343 1,4 V 7 H 2 V 7 C 2,7 2.0621562,5.994375 2.1601562,5.734375 2.2571562,5.474375 2.363875,5.3637187 2.546875,5.2617188 2.913875,5.0597188 3.7418594,5.014 5.0058594,5 H 11 c 1.26,0.014 2.087125,0.060719 2.453125,0.2617188 0.183,0.102 0.289719,0.2126562 0.386719,0.4726562 C 13.937844,5.994375 13.998047,7 13.998047,7 v 5 c 0,0.592 -0.0602,1.005625 -0.158203,1.265625 -0.097,0.26 -0.203719,0.371656 -0.386719,0.472656 C 13.087125,13.940281 12.259,13.985 11,14 H 5 C 3.74,13.985 2.913875,13.940281 2.546875,13.738281 2.363875,13.637281 2.2571562,13.525625 2.1601562,13.265625 2.0621563,13.005625 2,12.592 2,12 V 11 H 1 v 1 c 0,0.657 0.058656,1.178188 0.2226562,1.617188 C 1.3876563,14.056188 1.6865,14.405281 2.0625,14.613281 2.8155,15.028281 3.7361406,14.985 4.9941406,15 h 6.0117184 c 1.258,-0.015 2.178641,0.02828 2.931641,-0.386719 0.389571,-0.220977 0.686892,-0.574435 0.837891,-0.996093 C 14.940391,13.178187 15,12.627 15,12 V 4 C 15,3.342 14.940391,2.8208125 14.775391,2.3828125 14.624014,1.9608756 14.326853,1.6069146 13.9375,1.3847656 13.1845,0.96876563 12.263859,1.015 11.005859,1 H 11 V 2 H 10 V 1 Z m 4,0 h 1 V 0 l -1,0.25 z"
     id="path2"
     inkscape:connector-curvature="0"
     sodipodi:nodetypes="ccccccccccccsccscccccccscsccccsccsccccccssccccccccccccc" />
  <path
     d="m 5.3618498,6.035 c -0.267,-0.013 -0.559,0.188 -0.567,0.465 V 8 h -3.5 C 1.0230698,8.01027 0.80511977,8.228224 0.79484977,8.5 v 0.9999998 c -0.003,0.03126 -0.003,0.06274 0,0.094 0.044,0.229 0.26700003,0.4100002 0.50000003,0.406 h 3.5 V 11.5 c 0.011,0.369 0.524,0.606 0.813,0.375 l 3,-2.5000002 c 0.21183,-0.205126 0.21183,-0.5448738 0,-0.7499998 l -3,-2.5 c -0.0702,-0.05558 -0.15648,-0.08713 -0.246,-0.09 z"
     overflow="visible"
     style="overflow:visible;fill:#808080;fill-opacity:1;stroke:none;stroke-opacity:1;marker:none"
     id="path12"
     inkscape:connector-curvature="0"
     sodipodi:nodetypes="ccccccccccccccc" />
</svg>
